public/static/img/common/no_data.svg

<svg width="94" height="70" viewBox="0 0 94 70" fill="none" xmlns="http://www.w3.org/2000/svg" class="svg-class">
<path d="M10.4531 10.9219H66.021V44.3999C66.021 53.3608 66.021 57.8412 64.2771 61.2638C62.7432 64.2744 60.2955 66.7221 57.2849 68.2561C53.8623 70 49.3819 70 40.421 70H16.8531C14.6129 70 13.4928 70 12.6372 69.564C11.8845 69.1805 11.2726 68.5686 10.8891 67.8159C10.4531 66.9603 10.4531 65.8402 10.4531 63.6V10.9219Z" fill="white" fill-opacity="0.04"></path>
<path d="M10.922 69.9994C4.88993 69.9994 0 65.1094 0 59.0774H47.0402C47.0402 69.9994 57.4936 69.9994 57.4936 69.9994H10.922Z" fill="url(#paint0_linear_610_9638)"></path>
<path d="M21.3751 -4.86374e-05C15.3431 -4.86374e-05 10.4531 4.88989 10.4531 10.9219H66.0211C66.0211 -4.86374e-05 76.4745 -4.86374e-05 76.4745 -4.86374e-05H21.3751Z" fill="url(#paint1_linear_610_9638)"></path>
<rect x="18.8245" y="18.6667" width="25.2954" height="3.5" rx="1.75" fill="white" fill-opacity="0.06"></rect>
<rect x="18.8245" y="30.9166" width="17.6479" height="3.50001" rx="1.75001" fill="white" fill-opacity="0.06"></rect>
<rect x="18.8245" y="43.1665" width="23.5306" height="3.50001" rx="1.75001" fill="white" fill-opacity="0.06"></rect>
<path fill-rule="evenodd" clip-rule="evenodd" d="M84.7774 40.6118C84.7774 48.657 78.2822 55.1788 70.2701 55.1788C62.2579 55.1788 55.7627 48.657 55.7627 40.6118C55.7627 32.5667 62.2579 26.0449 70.2701 26.0449C78.2822 26.0449 84.7774 32.5667 84.7774 40.6118ZM79.5453 40.8507C79.5453 46.1262 75.2862 50.4028 70.0323 50.4028C64.7784 50.4028 60.5193 46.1262 60.5193 40.8507C60.5193 35.5752 64.7784 31.2986 70.0323 31.2986C75.2862 31.2986 79.5453 35.5752 79.5453 40.8507Z" fill="#00A609"></path>
<path d="M70.0323 50.4028C75.2862 50.4028 79.5453 46.1262 79.5453 40.8507C79.5453 35.5752 75.2862 31.2986 70.0323 31.2986C64.7784 31.2986 60.5193 35.5752 60.5193 40.8507C60.5193 46.1262 64.7784 50.4028 70.0323 50.4028Z" fill="#00A609" fill-opacity="0.1"></path>
<path fill-rule="evenodd" clip-rule="evenodd" d="M84.4655 55.6269L80.3997 51.4324L81.5453 50.3283L85.6111 54.5229L84.4655 55.6269Z" fill="#00A609"></path>
<path fill-rule="evenodd" clip-rule="evenodd" d="M88.0521 54.7156C87.6019 54.2637 87.012 54.0377 86.422 54.0377C85.832 54.0377 85.242 54.2637 84.7919 54.7156C84.3418 55.1676 84.1167 55.76 84.1167 56.3524C84.1167 56.9448 84.3418 57.5372 84.7919 57.9892L90.0646 63.2836C90.5148 63.7356 91.1047 63.9616 91.6947 63.9616C92.2847 63.9616 92.8747 63.7356 93.3248 63.2836C93.7749 62.8316 94 62.2392 94 61.6468C94 61.0544 93.7749 60.462 93.3248 60.01L88.0521 54.7156Z" fill="#00A609"></path>
<defs>
<linearGradient id="paint0_linear_610_9638" x1="32.2204" y1="59.0774" x2="32.2204" y2="69.9994" gradientUnits="userSpaceOnUse">
<stop stop-color="white" stop-opacity="0.08"></stop>
<stop offset="1" stop-color="white" stop-opacity="0.04"></stop>
</linearGradient>
<linearGradient id="paint1_linear_610_9638" x1="47.4526" y1="10.9219" x2="47.4526" y2="-4.86374e-05" gradientUnits="userSpaceOnUse">
<stop stop-color="white" stop-opacity="0.04"></stop>
<stop offset="1" stop-color="white" stop-opacity="0.08"></stop>
</linearGradient>
</defs>
</svg>

<svg width="94" height="70" fill="none" xmlns="http://www.w3.org/2000/svg" class="svg-class"><path d="M10.453 10.922h55.568V44.4c0 8.96 0 13.441-1.744 16.864a16 16 0 0 1-6.992 6.992C53.862 70 49.382 70 40.42 70H16.853c-2.24 0-3.36 0-4.216-.436a4 4 0 0 1-1.748-1.748c-.436-.856-.436-1.976-.436-4.216V10.922Z" fill="#fff" fill-opacity=".04"/><path d="M10.922 70C4.89 70 0 65.11 0 59.076h47.04C47.04 70 57.494 70 57.494 70H10.922Z" fill="url(#a)"/><path d="M21.375 0c-6.032 0-10.922 4.89-10.922 10.922h55.568C66.021 0 76.475 0 76.475 0h-55.1Z" fill="url(#b)"/><rect x="18.825" y="18.667" width="25.295" height="3.5" rx="1.75" fill="#fff" fill-opacity=".06"/><rect x="18.825" y="30.917" width="17.648" height="3.5" rx="1.75" fill="#fff" fill-opacity=".06"/><rect x="18.825" y="43.166" width="23.531" height="3.5" rx="1.75" fill="#fff" fill-opacity=".06"/><path fill-rule="evenodd" clip-rule="evenodd" d="M84.777 40.612c0 8.045-6.495 14.567-14.507 14.567s-14.507-6.522-14.507-14.567 6.495-14.567 14.507-14.567 14.507 6.522 14.507 14.567Zm-5.232.239c0 5.275-4.259 9.552-9.513 9.552s-9.513-4.277-9.513-9.552c0-5.276 4.26-9.552 9.513-9.552 5.254 0 9.513 4.276 9.513 9.552Z" fill="#00A609"/><path d="M70.032 50.403c5.254 0 9.513-4.277 9.513-9.552 0-5.276-4.259-9.552-9.513-9.552s-9.513 4.276-9.513 9.552c0 5.275 4.26 9.552 9.513 9.552Z" fill="#00A609" fill-opacity=".1"/><path fill-rule="evenodd" clip-rule="evenodd" d="M84.466 55.627 80.4 51.432l1.145-1.104 4.066 4.195-1.145 1.104Z" fill="#00A609"/><path fill-rule="evenodd" clip-rule="evenodd" d="M88.052 54.716a2.294 2.294 0 0 0-1.63-.678 2.313 2.313 0 0 0-2.305 2.315c0 .592.225 1.184.675 1.636l5.273 5.295c.45.452 1.04.678 1.63.678A2.313 2.313 0 0 0 94 61.647c0-.593-.225-1.185-.675-1.637l-5.273-5.294Z" fill="#00A609"/><defs><linearGradient id="a" x1="32.22" y1="59.077" x2="32.22" y2="69.999" gradientUnits="userSpaceOnUse"><stop stop-color="#fff" stop-opacity=".08"/><stop offset="1" stop-color="#fff" stop-opacity=".04"/></linearGradient><linearGradient id="b" x1="47.453" y1="10.922" x2="47.453" y2="0" gradientUnits="userSpaceOnUse"><stop stop-color="#fff" stop-opacity=".04"/><stop offset="1" stop-color="#fff" stop-opacity=".08"/></linearGradient></defs></svg>
